X: 35821
T: Saltón Da Marea
R: reel
M: 4/4
K: Dmajor
A~f3 fedf|efge fedB|F~G3 G~A3|A~e3 fedB|
A~f3 fedf|efge fedB|F~G3 G~A3|1 Adef ~d3B:|2 Adef d2ef||
|:~g3a fedB|e~A3 BAeA-|~A2eA defd|
~g3a fedB|e~A3 BAeA-|1 ~A2eA d2ef:|2 ~A2eA ~d3B||

